; generated by Slic3r 1.37.1-prusa3d on 2018-10-30 at 22:01:57

; 

; external perimeters extrusion width = 0.45mm
; perimeters extrusion width = 0.45mm
; infill extrusion width = 0.45mm
; solid infill extrusion width = 0.45mm
; top infill extrusion width = 0.40mm
; first layer extrusion width = 0.60mm

M107
G21
M42 P9 S150
M300 S500 P10
M190 S55
M300 S500 P100
M109 S210
M300 S500 P300
G28
G90
G21
G92 E0
M83
G1 Z0.2 F1000.0
G1 X5.0 Y5.0 F1000.0
G1 Y68.0 E9.0 F1000.0
G1 Y108.0 E12.5 F1000.0
M82
G92 E0

; Filament gcode

G21 ; set units to millimeters
G90 ; use absolute coordinates
M83 ; use relative distances for extrusion
G1 E-0.80000 F2400.00000
G1 Z0.350 F7800.000
G1 X57.729 Y51.971 F7800.000
G1 E0.80000 F2400.00000
G1 F1800
G1 X58.913 Y51.231 E0.12697
G1 X60.220 Y50.756 E0.12639
G1 X61.603 Y50.565 E0.12697
G1 X108.265 Y50.323 E4.24307
G1 X137.693 Y50.323 E2.67584
G1 X138.826 Y50.422 E0.10337
G1 X139.919 Y50.711 E0.10280
G1 X140.947 Y51.181 E0.10280
G1 X141.880 Y51.819 E0.10280
G1 X142.691 Y52.607 E0.10280
G1 X143.359 Y53.526 E0.10337
G1 X143.858 Y54.541 E0.10280
G1 X144.179 Y55.631 E0.10337
G1 X151.981 Y120.858 E5.97336
G1 X151.988 Y125.127 E0.38810
G1 X151.871 Y126.127 E0.09164
G1 X151.660 Y127.048 E0.08587
G1 X145.626 Y145.268 E1.74523
G1 X145.137 Y146.336 E0.10683
G1 X144.466 Y147.301 E0.10683
G1 X143.432 Y148.295 E0.13042
G1 X142.203 Y149.046 E0.13099
G1 X140.841 Y149.514 E0.13099
G1 X139.409 Y149.677 E0.13099
G1 X107.549 Y149.676 E2.89707
G1 X60.455 Y149.204 E4.28242
G1 X59.350 Y149.083 E0.10107
G1 X58.281 Y148.780 E0.10107
G1 X57.277 Y148.302 E0.10107
G1 X56.368 Y147.664 E0.10107
G1 X55.755 Y147.081 E0.07685
G1 X55.222 Y146.426 E0.07685
G1 X54.779 Y145.713 E0.07627
G1 X54.428 Y144.944 E0.07685
G1 X48.392 Y126.752 E1.74286
G1 X48.154 Y125.789 E0.09026
G1 X48.019 Y124.778 E0.09269
G1 X47.992 Y121.057 E0.33837
G1 X48.044 Y120.113 E0.08597
G1 X55.244 Y56.342 E5.83554
G1 X55.430 Y55.420 E0.08550
G1 X55.744 Y54.534 E0.08550
G1 X56.181 Y53.701 E0.08550
G1 X56.731 Y52.939 E0.08550
G1 X57.686 Y52.013 E0.12094
G1 F6240
G1 X58.913 Y51.231 E-0.53166
G1 F6240
G1 X59.500 Y51.017 E-0.22834
G1 E-0.04000 F2400.00000
G1 X58.821 Y123.660 F7800.000
G1 E0.80000 F2400.00000
G1 F1800
G1 X58.659 Y123.856 E0.02315
G1 X58.318 Y124.138 E0.04021
G1 X58.095 Y124.261 E0.02315
G1 X57.675 Y124.397 E0.04021
G1 X57.422 Y124.429 E0.02315
G1 X56.970 Y124.401 E0.04122
G1 X56.528 Y124.257 E0.04219
G1 X56.159 Y124.024 E0.03971
G1 X55.961 Y123.841 E0.02454
G1 X55.700 Y123.482 E0.04035
G1 X55.596 Y123.262 E0.02214
G1 X55.521 Y123.031 E0.02214
G1 X55.464 Y122.581 E0.04122
G1 X55.521 Y122.131 E0.04122
G1 X55.596 Y121.900 E0.02214
G1 X55.700 Y121.679 E0.02214
G1 X55.960 Y121.322 E0.04021
G1 X56.145 Y121.147 E0.02315
G1 X56.528 Y120.905 E0.04118
G1 X56.943 Y120.769 E0.03971
G1 X57.210 Y120.732 E0.02454
G1 X57.653 Y120.760 E0.04035
G1 X57.899 Y120.823 E0.02315
G1 X58.300 Y121.012 E0.04021
G1 X58.505 Y121.161 E0.02310
G1 X58.797 Y121.471 E0.03870
G1 X58.944 Y121.697 E0.02454
G1 X59.111 Y122.120 E0.04137
G1 X59.170 Y122.581 E0.04223
G1 X59.113 Y123.031 E0.04122
G1 X59.034 Y123.273 E0.02315
G1 X58.850 Y123.608 E0.03475
G1 X58.930 Y123.890 F7800.000
G1 F6240
G1 X58.659 Y123.856 E-0.11461
G1 F6240
G1 X58.318 Y124.138 E-0.16156
G1 F6240
G1 X58.095 Y124.261 E-0.09301
G1 F6240
G1 X57.675 Y124.397 E-0.16156
G1 F6240
G1 X57.422 Y124.429 E-0.09301
G1 F6240
G1 X57.050 Y124.406 E-0.13625
G1 E-0.04000 F2400.00000
G1 X83.115 Y136.981 F7800.000
G1 E0.80000 F2400.00000
G1 F1800
G1 X69.915 Y136.981 E1.20023
G1 X69.915 Y140.981 E0.36372
G1 X62.217 Y140.981 E0.70003
G1 X62.217 Y129.007 E1.08881
G1 X62.157 Y128.363 E0.05877
G1 X62.053 Y127.922 E0.04119
G1 X61.793 Y127.250 E0.06553
G1 X61.394 Y126.606 E0.06891
G1 X60.884 Y126.047 E0.06877
G1 X60.329 Y125.626 E0.06336
G1 X59.918 Y125.393 E0.04300
G1 X59.130 Y125.088 E0.07678
G1 X59.547 Y124.744 E0.04912
G1 X59.859 Y124.366 E0.04463
G1 X60.186 Y123.771 E0.06169
G1 X60.338 Y123.304 E0.04463
G1 X60.429 Y122.581 E0.06632
G1 X60.332 Y121.807 E0.07094
G1 X60.060 Y121.122 E0.06700
G1 X59.784 Y120.696 E0.04617
G1 X59.179 Y120.055 E0.08015
G1 X59.913 Y119.770 E0.07152
G1 X60.307 Y119.551 E0.04105
G1 X60.865 Y119.131 E0.06347
G1 X61.392 Y118.559 E0.07070
G1 X61.793 Y117.911 E0.06930
G1 X62.053 Y117.239 E0.06553
G1 X62.157 Y116.798 E0.04119
G1 X62.217 Y116.155 E0.05877
G1 X62.217 Y103.884 E1.11576
G1 X90.813 Y103.884 E2.60030
G1 X90.813 Y116.155 E1.11576
G1 X90.876 Y116.835 E0.06215
G1 X91.084 Y117.564 E0.06891
G1 X91.405 Y118.209 E0.06553
G1 X91.661 Y118.583 E0.04119
G1 X92.122 Y119.088 E0.06214
G1 X92.469 Y119.377 E0.04105
G1 X93.062 Y119.745 E0.06347
G1 X93.898 Y120.074 E0.08177
G1 X93.444 Y120.450 E0.05359
G1 X93.016 Y121.040 E0.06632
G1 X92.807 Y121.484 E0.04463
G1 X92.636 Y122.149 E0.06236
G1 X92.609 Y122.656 E0.04617
G1 X92.699 Y123.357 E0.06428
G1 X92.986 Y124.080 E0.07075
G1 X93.414 Y124.670 E0.06632
G1 X93.871 Y125.099 E0.05698
G1 X93.083 Y125.405 E0.07689
G1 X92.470 Y125.784 E0.06553
G1 X92.123 Y126.072 E0.04105
G1 X91.651 Y126.587 E0.06347
G1 X91.239 Y127.246 E0.07070
G1 X90.964 Y127.956 E0.06916
G1 X90.835 Y128.640 E0.06336
G1 X90.813 Y129.038 E0.03626
G1 X90.813 Y140.981 E1.08594
G1 X83.115 Y140.981 E0.70003
G1 X83.115 Y137.041 E0.35826
G1 X82.490 Y137.606 F7800.000
G1 F1800
G1 X70.540 Y137.606 E1.08659
G1 X70.540 Y141.606 E0.36372
G1 X61.592 Y141.606 E0.81368
G1 X61.592 Y129.036 E1.14300
G1 X61.539 Y128.464 E0.05220
G1 X61.455 Y128.108 E0.03330
G1 X61.231 Y127.530 E0.05632
G1 X60.893 Y126.984 E0.05838
G1 X60.461 Y126.510 E0.05829
G1 X59.985 Y126.149 E0.05435
G1 X59.650 Y125.960 E0.03505
G1 X59.069 Y125.735 E0.05662
G1 X58.442 Y125.617 E0.05799
G1 X57.166 Y125.606 E0.11602
G1 X56.721 Y125.552 E0.04079
G1 X56.452 Y125.448 E0.02615
G1 X56.179 Y125.281 E0.02915
G1 X55.876 Y124.969 E0.03950
G1 X56.087 Y124.718 E0.02982
G1 X56.261 Y124.828 E0.01874
G1 X56.852 Y125.019 E0.05647
G1 X57.442 Y125.057 E0.05377
G1 X57.811 Y125.010 E0.03389
G1 X58.344 Y124.837 E0.05095
G1 X58.671 Y124.657 E0.03389
G1 X59.103 Y124.300 E0.05095
G1 X59.340 Y124.013 E0.03389
G1 X59.610 Y123.522 E0.05095
G1 X59.725 Y123.167 E0.03389
G1 X59.799 Y122.581 E0.05377
G1 X59.721 Y121.963 E0.05659
G1 X59.502 Y121.409 E0.05418
G1 X59.291 Y121.083 E0.03536
G1 X58.919 Y120.690 E0.04918
G1 X58.619 Y120.471 E0.03377
G1 X58.112 Y120.233 E0.05095
G1 X57.751 Y120.140 E0.03389
G1 X57.187 Y120.105 E0.05136
G1 X56.802 Y120.157 E0.03536
G1 X56.259 Y120.335 E0.05199
G1 X56.089 Y120.443 E0.01823
G1 X55.878 Y120.191 E0.02983
G1 X56.181 Y119.879 E0.03954
G1 X56.439 Y119.719 E0.02758
G1 X56.701 Y119.618 E0.02552
G1 X56.984 Y119.565 E0.02617
G1 X58.445 Y119.544 E0.13289
G1 X59.069 Y119.427 E0.05773
G1 X59.646 Y119.203 E0.05632
G1 X59.966 Y119.026 E0.03322
G1 X60.444 Y118.666 E0.05441
G1 X60.892 Y118.180 E0.06012
G1 X61.231 Y117.632 E0.05861
G1 X61.455 Y117.054 E0.05632
G1 X61.539 Y116.698 E0.03330
G1 X61.592 Y116.126 E0.05220
G1 X61.592 Y103.259 E1.16995
G1 X91.438 Y103.259 E2.71394
G1 X91.438 Y116.126 E1.16995
G1 X91.493 Y116.720 E0.05426
G1 X91.669 Y117.338 E0.05838
G1 X91.945 Y117.892 E0.05632
G1 X92.152 Y118.194 E0.03330
G1 X92.554 Y118.635 E0.05426
G1 X92.835 Y118.869 E0.03322
G1 X93.343 Y119.185 E0.05441
G1 X93.959 Y119.427 E0.06012
G1 X94.588 Y119.544 E0.05823
G1 X95.864 Y119.555 E0.11602
G1 X96.193 Y119.586 E0.03002
G1 X96.463 Y119.663 E0.02552
G1 X96.734 Y119.798 E0.02758
G1 X97.037 Y120.056 E0.03621
G1 X97.157 Y120.215 E0.01812
G1 X96.945 Y120.445 E0.02847
G1 X96.796 Y120.351 E0.01601
G1 X96.479 Y120.225 E0.03109
G1 X96.147 Y120.140 E0.03108
G1 X95.557 Y120.103 E0.05377
G1 X94.976 Y120.214 E0.05377
G1 X94.659 Y120.340 E0.03108
G1 X94.359 Y120.504 E0.03108
G1 X93.903 Y120.881 E0.05377
G1 X93.556 Y121.360 E0.05377
G1 X93.397 Y121.697 E0.03389
G1 X93.257 Y122.244 E0.05136
G1 X93.236 Y122.632 E0.03536
G1 X93.309 Y123.199 E0.05200
G1 X93.538 Y123.777 E0.05647
G1 X93.885 Y124.255 E0.05377
G1 X94.134 Y124.489 E0.03108
G1 X94.411 Y124.690 E0.03108
G1 X94.946 Y124.942 E0.05377
G1 X95.527 Y125.053 E0.05377
G1 X95.869 Y125.053 E0.03109
G1 X96.208 Y125.010 E0.03109
G1 X96.770 Y124.827 E0.05377
G1 X96.962 Y124.706 E0.02061
G1 X97.173 Y124.946 E0.02914
G1 X97.054 Y125.090 E0.01700
G1 X96.830 Y125.295 E0.02758
G1 X96.591 Y125.442 E0.02552
G1 X96.329 Y125.544 E0.02552
G1 X96.046 Y125.597 E0.02617
G1 X94.585 Y125.618 E0.13289
G1 X93.961 Y125.735 E0.05773
G1 X93.362 Y125.966 E0.05838
G1 X92.836 Y126.293 E0.05632
G1 X92.555 Y126.526 E0.03322
G1 X92.151 Y126.967 E0.05441
G1 X91.800 Y127.528 E0.06012
G1 X91.567 Y128.128 E0.05853
G1 X91.456 Y128.715 E0.05435
G1 X91.438 Y129.055 E0.03095
G1 X91.438 Y141.606 E1.14125
G1 X82.490 Y141.606 E0.81368
G1 X82.490 Y137.666 E0.35826
G1 F6240
G1 X80.410 Y137.655 E-0.76000
G1 E-0.04000 F2400.00000
G1 X94.090 Y123.473 F7800.000
G1 E0.80000 F2400.00000
G1 F1800
G1 X93.919 Y123.042 E0.04219
G1 X93.863 Y122.609 E0.03971
G1 X93.877 Y122.339 E0.02454
G1 X93.988 Y121.910 E0.04035
G1 X94.096 Y121.679 E0.02315
G1 X94.363 Y121.313 E0.04122
G1 X94.712 Y121.024 E0.04122
G1 X94.925 Y120.906 E0.02214
G1 X95.152 Y120.817 E0.02214
G1 X95.597 Y120.732 E0.04122
G1 X96.049 Y120.760 E0.04122
G1 X96.285 Y120.821 E0.02214
G1 X96.511 Y120.910 E0.02214
G1 X96.894 Y121.153 E0.04122
G1 X97.205 Y121.484 E0.04122
G1 X97.335 Y121.689 E0.02214
G1 X97.439 Y121.910 E0.02214
G1 X97.551 Y122.349 E0.04122
G1 X97.551 Y122.802 E0.04122
G1 X97.504 Y123.052 E0.02315
G1 X97.337 Y123.473 E0.04118
G1 X97.081 Y123.827 E0.03971
G1 X96.886 Y124.014 E0.02454
G1 X96.502 Y124.257 E0.04137
G1 X96.071 Y124.397 E0.04122
G1 X95.829 Y124.428 E0.02214
G1 X95.586 Y124.428 E0.02214
G1 X95.141 Y124.343 E0.04122
G1 X94.730 Y124.150 E0.04122
G1 X94.534 Y124.007 E0.02214
G1 X94.356 Y123.840 E0.02214
G1 X94.125 Y123.522 E0.03576
G1 X93.690 Y123.457 F7800.000
G1 F6240
G1 X93.919 Y123.042 E-0.19084
G1 F6240
G1 X93.863 Y122.609 E-0.15957
G1 F6240
G1 X93.877 Y122.339 E-0.09861
G1 F6240
G1 X93.988 Y121.910 E-0.16215
G1 F6240
G1 X94.096 Y121.679 E-0.09301
G1 F6240
G1 X94.186 Y121.556 E-0.05582
G1 E-0.04000 F2400.00000
G1 X81.865 Y138.231 F7800.000
G1 E0.80000 F2400.00000
G1 F1800
G1 X71.165 Y138.231 E0.97295
G1 X71.165 Y142.231 E0.36372
G1 X60.967 Y142.231 E0.92732
G1 X60.967 Y129.065 E1.19720
G1 X60.921 Y128.565 E0.04563
G1 X60.857 Y128.293 E0.02542
G1 X60.669 Y127.810 E0.04711
G1 X60.392 Y127.362 E0.04785
G1 X60.038 Y126.974 E0.04782
G1 X59.641 Y126.673 E0.04533
G1 X59.381 Y126.526 E0.02711
G1 X58.897 Y126.338 E0.04722
G1 X58.381 Y126.242 E0.04771
G1 X57.134 Y126.231 E0.11339
G1 X56.714 Y126.192 E0.03841
G1 X56.536 Y126.150 E0.01661
G1 X56.175 Y126.011 E0.03521
G1 X55.814 Y125.790 E0.03842
G1 X55.675 Y125.674 E0.01653
G1 X55.413 Y125.389 E0.03521
G1 X55.193 Y125.038 E0.03768
G1 X55.047 Y124.661 E0.03671
G1 X55.006 Y124.484 E0.01658
G1 X54.967 Y124.065 E0.03822
G1 X54.977 Y120.875 E0.29008
G1 X55.003 Y120.694 E0.01663
G1 X55.116 Y120.297 E0.03753
G1 X55.189 Y120.130 E0.01658
G1 X55.402 Y119.786 E0.03679
G1 X55.675 Y119.487 E0.03679
G1 X55.815 Y119.371 E0.01658
G1 X56.159 Y119.158 E0.03679
G1 X56.529 Y119.014 E0.03605
G1 X56.921 Y118.941 E0.03629
G1 X58.382 Y118.920 E0.13289
G1 X58.897 Y118.823 E0.04761
G1 X59.380 Y118.636 E0.04711
G1 X59.624 Y118.500 E0.02538
G1 X60.023 Y118.201 E0.04535
G1 X60.392 Y117.800 E0.04953
G1 X60.669 Y117.352 E0.04793
G1 X60.857 Y116.869 E0.04711
G1 X60.921 Y116.597 E0.02542
G1 X60.967 Y116.097 E0.04563
G1 X60.967 Y102.634 E1.22415
G1 X92.063 Y102.634 E2.82758
G1 X92.063 Y116.097 E1.22415
G1 X92.110 Y116.605 E0.04637
G1 X92.254 Y117.111 E0.04785
G1 X92.485 Y117.575 E0.04711
G1 X92.643 Y117.805 E0.02542
G1 X92.987 Y118.182 E0.04637
G1 X93.201 Y118.360 E0.02538
G1 X93.625 Y118.624 E0.04535
G1 X94.132 Y118.823 E0.04953
G1 X94.649 Y118.920 E0.04779
G1 X95.896 Y118.931 E0.11339
G1 X96.308 Y118.969 E0.03767
G1 X96.689 Y119.077 E0.03605
G1 X97.052 Y119.258 E0.03679
G1 X97.202 Y119.361 E0.01658
G1 X97.501 Y119.633 E0.03679
G1 X97.745 Y119.956 E0.03679
G1 X97.834 Y120.116 E0.01658
G1 X97.980 Y120.493 E0.03682
G1 X98.052 Y120.874 E0.03523
G1 X98.063 Y121.090 E0.01963
G1 X98.053 Y124.287 E0.29071
G1 X98.027 Y124.468 E0.01663
G1 X97.917 Y124.857 E0.03682
G1 X97.744 Y125.204 E0.03523
G1 X97.507 Y125.523 E0.03611
G1 X97.208 Y125.795 E0.03679
G1 X96.871 Y126.004 E0.03605
G1 X96.501 Y126.147 E0.03605
G1 X96.109 Y126.221 E0.03629
G1 X94.648 Y126.242 E0.13289
G1 X94.133 Y126.338 E0.04761
G1 X93.642 Y126.528 E0.04785
G1 X93.202 Y126.801 E0.04711
G1 X92.987 Y126.979 E0.02538
G1 X92.650 Y127.347 E0.04535
G1 X92.361 Y127.809 E0.04953
G1 X92.171 Y128.300 E0.04790
G1 X92.078 Y128.790 E0.04533
G1 X92.063 Y129.072 E0.02564
G1 X92.063 Y142.231 E1.19657
G1 X81.865 Y142.231 E0.92732
G1 X81.865 Y138.291 E0.35826
G1 X81.710 Y137.862 F7800.000
G1 F6240
G1 X79.785 Y138.279 E-0.76000
G1 E-0.04000 F2400.00000
G1 X82.854 Y136.794 F7800.000
G1 E0.80000 F2400.00000
G1 F1800
G1 X62.647 Y116.587 E2.62087
G1 X62.621 Y116.874 E0.02643
G1 X62.511 Y117.342 E0.04407
G1 X81.681 Y136.512 E2.48650
G1 X80.790 Y136.512 E0.08175
G1 X62.266 Y117.988 E2.40265
G1 X62.214 Y118.121 E0.01307
G1 X61.944 Y118.558 E0.04710
G1 X79.899 Y136.512 E2.32878
G1 X79.007 Y136.512 E0.08175
G1 X61.561 Y119.067 E2.26277
G1 X61.125 Y119.522 E0.05782
G1 X78.116 Y136.512 E2.20375
G1 X77.224 Y136.512 E0.08175
G1 X60.616 Y119.904 E2.15412
G1 X60.043 Y120.222 E0.06013
G1 X76.333 Y136.512 E2.11287
G1 X75.442 Y136.512 E0.08175
G1 X60.814 Y121.884 E1.89731
G1 X60.902 Y122.581 E0.06439
G1 X60.870 Y122.832 E0.02321
G1 X74.550 Y136.512 E1.77440
G1 X73.659 Y136.512 E0.08175
G1 X60.738 Y123.591 E1.67596
G1 X60.618 Y123.958 E0.03541
G1 X60.475 Y124.219 E0.02734
G1 X72.768 Y136.512 E1.59445
G1 X71.876 Y136.512 E0.08175
G1 X59.934 Y124.570 E1.54899
G1 F6240
G1 X61.405 Y126.041 E-0.76000
G1 E-0.04000 F2400.00000
G1 X55.652 Y124.751 F7800.000
G1 E0.80000 F2400.00000
G1 F1800
G1 X55.304 Y123.476 E0.01725
G1 F6240
G1 X55.652 Y124.751 E-0.48287
G1 E-0.31713 F2400.00000
G1 X55.311 Y121.673 F7800.000
G1 E0.80000 F2400.00000
G1 F1800
G1 X55.658 Y120.415 E0.01549
G1 F6240
G1 X55.311 Y121.673 E-0.47675
G1 E-0.32325 F2400.00000
G1 X63.679 Y140.794 F7800.000
G1 E0.80000 F2400.00000
G1 F1800
G1 X62.685 Y139.800 E0.12884
G1 X62.685 Y138.909 E0.08175
G1 X64.289 Y140.512 E0.20798
G1 X65.180 Y140.512 E0.08175
G1 X62.685 Y138.018 E0.32359
G1 X62.685 Y137.126 E0.08175
G1 X66.071 Y140.512 E0.43921
G1 X66.963 Y140.512 E0.08175
G1 X62.685 Y136.235 E0.55482
G1 X62.685 Y135.343 E0.08175
G1 X67.854 Y140.512 E0.67043
G1 X68.746 Y140.512 E0.08175
G1 X62.685 Y134.452 E0.78604
G1 X62.685 Y133.561 E0.08175
G1 X69.447 Y140.322 E0.87697
G1 X69.447 Y139.431 E0.08175
G1 X62.685 Y132.669 E0.87697
G1 X62.685 Y131.778 E0.08175
G1 X69.447 Y138.539 E0.87697
G1 X69.447 Y137.648 E0.08175
G1 X62.685 Y130.887 E0.87697
G1 X62.685 Y129.995 E0.08175
G1 X69.447 Y136.757 E0.87697
G1 X69.447 Y136.512 E0.02241
G1 X70.094 Y136.512 E0.05934
G1 X62.685 Y129.104 E0.96090
G1 X62.621 Y128.288 E0.07511
G1 X62.578 Y128.105 E0.01720
G1 X71.266 Y136.794 E1.12693
G1 F6240
G1 X69.795 Y135.323 E-0.76000
G1 E-0.04000 F2400.00000
G1 X84.180 Y140.794 F7800.000
G1 E0.80000 F2400.00000
G1 F1800
G1 X83.583 Y140.197 E0.07734
G1 X83.583 Y139.306 E0.08175
G1 X84.790 Y140.512 E0.15648
G1 X85.681 Y140.512 E0.08175
G1 X83.583 Y138.415 E0.27209
G1 X83.583 Y137.523 E0.08175
G1 X86.573 Y140.512 E0.38770
G1 X87.464 Y140.512 E0.08175
G1 X62.685 Y115.734 E3.21389
G1 X62.685 Y114.842 E0.08175
G1 X88.355 Y140.512 E3.32950
G1 X89.247 Y140.512 E0.08175
G1 X62.685 Y113.951 E3.44511
G1 X62.685 Y113.060 E0.08175
G1 X90.138 Y140.512 E3.56072
G1 X90.345 Y140.512 E0.01897
G1 X90.345 Y139.828 E0.06278
G1 X62.685 Y112.168 E3.58754
G1 X62.685 Y111.277 E0.08175
G1 X90.345 Y138.936 E3.58754
G1 X90.345 Y138.045 E0.08175
G1 X62.685 Y110.386 E3.58754
G1 X62.685 Y109.494 E0.08175
G1 X90.345 Y137.154 E3.58754
G1 X90.345 Y136.262 E0.08175
G1 X62.685 Y108.603 E3.58754
G1 X62.685 Y107.712 E0.08175
G1 X90.345 Y135.371 E3.58754
G1 X90.345 Y134.480 E0.08175
G1 X62.685 Y106.820 E3.58754
G1 X62.685 Y105.929 E0.08175
G1 X90.345 Y133.588 E3.58754
